!!!OTL: Die Rabenmutter
!!!OTL-incipit:Am Dienstag z'Morgen in aller Frueh',
!!!ARE: Europa, Mitteleuropa, Deutschland / France, Lothringen, Hambach
!!!YOR: 5, S. 252
!!    1918 aufgezeichnet
!!!SCT: Q0114B
!!!TXL: @@DE
!!!YEM: Copyright 1995, estate of Helmut Schaffrath.
**kern	**text
*ICvox	*
!! Irregular meter.
*MX	*
*k[f#]	*
*G:	*
{8dL	1._Am
8d	Diens-
8gJ	-tag
=1	=1
4g	z'_Mor-
8gL	-gen
8gJ	in
8gL	al-
8eeJ	-ler
=2	=2
4dd}	Früh',
{8bL	da
8bJ	mus
16bL	ich
16b	ʒu
16b	mei-
16bJ	-ner
=3	=3
8ccL	Mut-
8bJ	-ter
8aL	auf
8gJ	die
8f#L	Hoch-
8aJ	-ʒeit
=4	=4
4g	gehn.
4r}	.
{8bL	'Gu-
8ccJ	-ten
=5	=5
4a	Mor-
8aL	-gen,
8bJ	ihr
8ccL	Hoch-
8ddJ	-ʒeits-
=6	=6
4a	-leut'!
8r}	.
{8dd	ich
=7:	=7:
4dd	wün-
4dd	-sche
8ddL	mei-
8ddJ	-ner
=8	=8
4ee	Mut-
8ddL	-ter
8ccJ	ein'
=9	=9
4b	gro-
4a	-Be
4g}	Freud'.
==	==
!!!AGN: Ballade, Kinds - Mord, Strafe
!!!ONB: ESAC (Essen Associative Code) Database: BALLADE
!!!AMT: irregular
!!!AIN: vox
!!!EED: Helmut Schaffrath
!!!EEV: 1.0
!!@@COMMENT:"Hambach-Lothringen, 1918.
!!Pinck, Weisen 1, 65."
!!@@END:
!!!source: Deutsche Volkslieder mit ihren Melodien Balladen. Herausgegeben vom Deutschen Volksliedarchiv. Fünfter Teil. Freiburg/Breisgau 1965.
!!!page: 252
!!!ENC: Anna Maria Matuszewska
!!!EEV: 2025/03/05
*-	*-
